X:6
T:Duike of Barlfel
Z: id:dc-jig-82
M:6/8
L:1/8
K:E MinABA|G2FG Ac=cA|G2FG AdcA|!
G2BG AGEG|cBcA G3A|BcdB AGEF|G2BG dGBG|AddB AGEA|!
B3_BAG|A3 A3:|!
a^ga e2=f|g3 g3:|!
f2a f2f|e2f g2B|A2G E2D|!
FAD G2A|BAd f2d|fag fed|cAG A2:|!

